COLOR/action 16/16/object-locked.svg

<svg height="16" width="16" xmlns="http://www.w3.org/2000/svg"><g><path d="m7.9824219 3.5c-1.6493997 0-2.9808382 1.3044079-2.9785157 2.9101562l.0039063 2.5566407h-1.0078125v5.0332031h8v-5.0332031h-1.042969l.001953-2.5566407c.001113-1.6050976-1.3271628-2.9101562-2.9765621-2.9101562zm0 1.4335938c.8247006 0 1.4882812.63964 1.4882812 1.4335937l-.0019531 2.5996094h-2.9726562l-.0039063-2.5996094c-.00113-.79395.6655347-1.4335937 1.4902344-1.4335937z" fill="#c7162b"/><path d="m7.9824219 3.5c-1.6493997 0-2.9808381 1.3044079-2.9785157 2.9101562v.4921876c.0020703-1.6021054 1.3318359-2.9023438 2.9785157-2.9023438 1.6480393 0 2.9754381 1.3029709 2.9765621 2.90625v-.4960938c.001113-1.6050976-1.3271628-2.9101562-2.9765621-2.9101562zm-3.9824219 5.4667969v.5h1.0078125v-.5zm2.4960938 0v.5h2.9726562v-.5zm4.4609372 0v.5h1.042969v-.5z" fill="#fff" opacity=".3"/><path d="m7.9824219 4.4335938c-.8246997-.0000001-1.4913644.6396437-1.4902344 1.4335937v.4921875c.0033194-.790261.6682925-1.4257813 1.4902344-1.4257812.8233217 0 1.4860673.6375778 1.4882812 1.4296874v-.4960937c0-.7939537-.6635806-1.4335937-1.4882812-1.4335937zm-3.9824219 9.0664062v.5h8v-.5z" opacity=".2"/></g></svg>

<?xml version="1.0" encoding="UTF-8" standalone="no"?>
<svg
   xmlns:dc="http://purl.org/dc/elements/1.1/"
   xmlns:cc="http://creativecommons.org/ns#"
   xmlns:rdf="http://www.w3.org/1999/02/22-rdf-syntax-ns#"
   xmlns:svg="http://www.w3.org/2000/svg"
   xmlns="http://www.w3.org/2000/svg"
   xmlns:sodipodi="http://sodipodi.sourceforge.net/DTD/sodipodi-0.dtd"
   xmlns:inkscape="http://www.inkscape.org/namespaces/inkscape"
   width="16"
   height="16"
   version="1.1"
   id="svg4"
   sodipodi:docname="object-locked.svg"
   inkscape:version="0.92.4 (5da689c313, 2019-01-14)">
  <metadata
     id="metadata10">
    <rdf:RDF>
      <cc:Work
         rdf:about="">
        <dc:format>image/svg+xml</dc:format>
        <dc:type
           rdf:resource="http://purl.org/dc/dcmitype/StillImage" />
        <dc:title />
      </cc:Work>
    </rdf:RDF>
  </metadata>
  <defs
     id="defs8" />
  <sodipodi:namedview
     pagecolor="#ffffff"
     bordercolor="#666666"
     borderopacity="1"
     objecttolerance="10"
     gridtolerance="10"
     guidetolerance="10"
     inkscape:pageopacity="0"
     inkscape:pageshadow="2"
     inkscape:window-width="1920"
     inkscape:window-height="1016"
     id="namedview6"
     showgrid="true"
     inkscape:zoom="79.904762"
     inkscape:cx="8"
     inkscape:cy="7.25"
     inkscape:window-x="0"
     inkscape:window-y="27"
     inkscape:window-maximized="1"
     inkscape:current-layer="g1536"
     inkscape:snap-global="false"
     showguides="true"
     inkscape:guide-bbox="true">
    <inkscape:grid
       type="xygrid"
       id="grid17" />
  </sodipodi:namedview>
  <g
     inkscape:groupmode="layer"
     id="layer2"
     inkscape:label="Layer 2"
     style="display:none"
     sodipodi:insensitive="true">
    <path
       inkscape:connector-curvature="0"
       id="path3689-6"
       style="color:#000000;display:inline;opacity:1;fill:#c7162b;fill-opacity:1;stroke-width:1.49999845;stroke-dashoffset:0.80000001;enable-background:new"
       d="m 8.0433398,0.04505873 c -4.4093907,0 -7.99999071,3.59058997 -7.99999071,7.99999007 0,4.4093902 3.59060001,7.9999902 7.99999071,7.9999902 4.4094002,0 7.9999902,-3.5906 7.9999902,-7.9999902 0,-4.4094001 -3.59059,-7.99999007 -7.9999902,-7.99999007 z"
       inkscape:export-filename="/home/stuart/yaru/icons/Suru/16x16/actions/window-close.png"
       inkscape:export-xdpi="96"
       inkscape:export-ydpi="96" />
    <path
       inkscape:connector-curvature="0"
       style="display:inline;opacity:1;fill:#ffffff;fill-opacity:1;stroke:none;stroke-width:0.60000002;stroke-miterlimit:4;stroke-dasharray:none;stroke-opacity:0.74509804"
       class="ColorScheme-Text"
       d="m 7.9958658,3.0505013 c -1.6499524,0 -2.9811417,1.297562 -2.9782536,2.8937941 L 5.021357,8.01401 c 2.054812,-0.00873 3.1839387,0.018216 5.950982,0.00552 l 0.0018,-2.0752386 C 10.975486,4.3487023 9.6458178,3.0505013 7.9958658,3.0505013 Z m 0,1.4246371 c 0.824977,0 1.489127,0.635388 1.489127,1.424637 l -0.00178,2.1087104 -2.9727301,0.00552 -0.00375,-2.1142346 c -0.0014,-0.7892477 0.6641507,-1.424637 1.4891267,-1.424637 z"
       id="path5-3"
       sodipodi:nodetypes="ssccsscsccssc" />
    <rect
       style="opacity:1;vector-effect:none;fill:#ffffff;fill-opacity:1;stroke:none;stroke-width:1.01737952;stroke-linecap:round;stroke-linejoin:miter;stroke-miterlimit:4;stroke-dasharray:none;stroke-dashoffset:0;stroke-opacity:1;paint-order:stroke fill markers"
       id="rect826"
       width="7.9558058"
       height="4.9375"
       x="4.0129442"
       y="8"
       rx="0"
       ry="0" />
  </g>
  <g
     style="display:inline"
     inkscape:label="Layer 2 copy"
     id="g1536"
     inkscape:groupmode="layer">
    <path
       style="display:inline;opacity:1;fill:#c7162b;fill-opacity:1;stroke:none;stroke-width:0.60168487;stroke-miterlimit:4;stroke-dasharray:none;stroke-opacity:0.74509804"
       d="M 7.9824219 3.5 C 6.3330222 3.5 5.0015837 4.8044079 5.0039062 6.4101562 L 5.0078125 8.9667969 L 4 8.9667969 L 4 14 L 12 14 L 12 8.9667969 L 10.957031 8.9667969 L 10.958984 6.4101562 C 10.960097 4.8050586 9.6318212 3.5 7.9824219 3.5 z M 7.9824219 4.9335938 C 8.8071225 4.9335938 9.4707031 5.5732338 9.4707031 6.3671875 L 9.46875 8.9667969 L 6.4960938 8.9667969 L 6.4921875 6.3671875 C 6.4910575 5.5732375 7.1577222 4.9335938 7.9824219 4.9335938 z "
       id="path1532" />
    <path
       style="display:inline;opacity:0.3;fill:#ffffff;fill-opacity:1;stroke:none;stroke-width:0.60168487;stroke-miterlimit:4;stroke-dasharray:none;stroke-opacity:0.74509804"
       d="M 7.9824219 3.5 C 6.3330222 3.5 5.0015838 4.8044079 5.0039062 6.4101562 L 5.0039062 6.9023438 C 5.0059765 5.3002384 6.3357421 4 7.9824219 4 C 9.6304612 4 10.95786 5.3029709 10.958984 6.90625 L 10.958984 6.4101562 C 10.960097 4.8050586 9.6318212 3.5 7.9824219 3.5 z M 4 8.9667969 L 4 9.4667969 L 5.0078125 9.4667969 L 5.0078125 8.9667969 L 4 8.9667969 z M 6.4960938 8.9667969 L 6.4960938 9.4667969 L 9.46875 9.4667969 L 9.46875 8.9667969 L 6.4960938 8.9667969 z M 10.957031 8.9667969 L 10.957031 9.4667969 L 12 9.4667969 L 12 8.9667969 L 10.957031 8.9667969 z "
       id="path823" />
    <path
       style="display:inline;opacity:0.2;fill:#000000;fill-opacity:1;stroke:none;stroke-width:0.60168487;stroke-miterlimit:4;stroke-dasharray:none;stroke-opacity:0.74509804"
       d="M 7.9824219 4.4335938 C 7.1577222 4.4335937 6.4910575 5.0732375 6.4921875 5.8671875 L 6.4921875 6.359375 C 6.4955069 5.569114 7.16048 4.9335937 7.9824219 4.9335938 C 8.8057436 4.9335938 9.4684892 5.5711716 9.4707031 6.3632812 L 9.4707031 5.8671875 C 9.4707031 5.0732338 8.8071225 4.4335938 7.9824219 4.4335938 z M 4 13.5 L 4 14 L 12 14 L 12 13.5 L 4 13.5 z "
       id="path828" />
  </g>
</svg>
